!!!!SEGMENT: pl-sa--106-a-iii-6_kellerer-christophorus--in-hac-annua.krn
!!!cenid: 17xx:1363
!!!COM: Kellerer, Christophorus
!!!COM-rismid: pe30001684
!!!CDT: 1742-1790
!!!CNT:
!!!OTL: In hac annua
!!!PDT:
!!!AGN:
!!!SMS-siglum: PL-SA
!!!SMS-shelfmark: 106/A III 6
!!!SMS-shelfwork: W
!!!SMS-variant:
!!!SMS-altvar:
!!!NIFC-rismid: 1001036508
!!!URL-scan: http://bc.bdsandomierz.pl/dlibra/publication/1462/edition/1430/content
!!!ONB-nifc:
!!!key:
**kern	**fb	**kern	**kern	**kern	**text
*part4	*	*part3	*part2	*part1	*part1
*group	*	*group1	*group1	*group	*group
*staff4	*	*staff3	*staff2	*staff1	*staff1
*Iempty	*	*Ivioln	*Ivioln	*Ivox	*
*I"Baſso	*	*I"Violino 2do	*I"Violino Primo.	*I"Canto ſolo	*
*I'bc	*	*I'vl 2	*I'vl 1	*I'S	*
*clefF4	*	*clefG2	*clefG2	*clefC1	*
*k[b-e-]	*	*k[b-e-]	*k[b-e-]	*k[b-e-]	*
*B-:	*	*B-:	*B-:	*B-:	*
*M2/2	*	*M2/2	*M2/2	*M2/2	*
*met(c|)	*	*met(c|)	*met(c|)	*met(c|)	*
=1	=1	=1	=1	=1	=1
*	*above	*	*	*	*
*2\right	*	*2\right	*2\right	*2\right	*
!	!	!	!	!LO:TX:t=P:problem=kłopot na początku (dodane 2 takty w Canto); vide (vl I, t. 99) wpisane za źródłem, ale brak zgodności w pionach	!
!	!	!	!LO:TX:t=P::problem=w źródle kolejność i wysokość znaków przykluczowych&colon; ee- b-	!	!
!LO:TX:t=P::problem=w źródle kolejność i wysokość znaków przykluczowych&colon; B- C- E-, błędne C- (błędnie wpisane zamiast BB-)	!	!LO:TX:t=P::problem=w źródle kolejność i wysokość znaków przykluczowych&colon; ee- b-	!LO:TX:a:i:t=Affectuoso.	!	!
4BB-/	.	8b-/L	8dd\L	1ryy	.
.	.	16f/L	16cc\L	.	.
.	.	16d/JJ	16b-\JJ	.	.
8r	.	8f/L	16cc\LL	.	.
.	.	.	16a\J	.	.
8r	.	8dd/J	8ff\J	.	.
!LO:TX:t=P:problem=mixed beam	!	!	!	!	!
8BB-/L	.	8ee-\L	8gg\L	.	.
8F\J	.	16dd\L	16ff\L	.	.
.	.	16cc\JJ	16ee-\JJ	.	.
4B-\	.	4b-\	4dd\	.	.
=2	=2	=2	=2	=2	=2
4BB-/	.	8dd\L	8ff\L	1ryy	.
.	.	16cc\L	16ee-\L	.	.
.	.	16b-\JJ	16dd\JJ	.	.
4r	.	8a/L	8cc\L	.	.
.	.	8d/J	8dd\J	.	.
8F\L	.	8f/L	8a\L	.	.
8G\J	.	8g/J	8b-\J	.	.
8F\	.	16f/LL	4cc\	.	.
.	.	16g/	.	.	.
8r	.	16f/	.	.	.
.	.	16e-/JJ	.	.	.
=3	=3	=3	=3	=3	=3
!	!	!	!	!LO:TX:a:i:t=Affectuozo	!
8BB-/	.	4d/	4b- 4d/	(>16b-\LL	In
.	.	.	.	16a\JJ)	.
8r	.	.	.	(>16b-\LL	hac
.	.	.	.	16cc\JJ)	.
4r	.	4r	4r	8b-\	an-
.	.	.	.	16f/	-nu-
.	.	.	.	16f/	-a
8BB-/	.	8f/L	16b-\LL	16dd\	no-
.	.	.	16cc\	16ee-\	-vi
8r	.	8f/	16dd\	16ff\	an-
.	.	.	16cc\JJ	16ee-\	-ni
4r	.	8d/	8b-/L	8dd\	sce-
.	.	8f/J	8f/J	8cc\	-na
=4	=4	=4	=4	=4	=4
4BB-/	.	8dd\L	8ff\L	1r	.
.	.	16cc\L	16ee-\L	.	.
.	.	16b-\JJ	16dd\JJ	.	.
4r	.	8a/L	8cc\L	.	.
.	.	8e-/J	8dd\J	.	.
8F\L	.	8f/L	8a\L	.	.
8G\J	.	8g/J	8b-\J	.	.
8F\	.	16f/LL	4cc\	.	.
.	.	16g/	.	.	.
8r	.	16f/	.	.	.
.	.	16e-/JJ	.	.	.
=5	=5	=5	=5	=5	=5
*	*	*	*^	*	*
8BB-/	.	4d/	4b-/	4d\	(>16b-\LL	In
.	.	.	.	.	16a\JJ)	.
8r	.	.	.	.	(>16b-\LL	hac
.	.	.	.	.	16cc\JJ)	.
4r	.	4r	4r	4ryy	8b-\	an-
.	.	.	.	.	16f/	-nu-
.	.	.	.	.	16f/	-a
8BB-/	.	8f/L	16b-\LL	2ryy	16dd\	no-
.	.	.	16cc\	.	16ee-\	-vi
8r	.	8f/J	16dd\	.	16ff\	an-
.	.	.	16cc\JJ	.	16ee-\	-ni
!	!	!LO:LB:g=original	!	!	!LO:LB:g=original	!
4r	.	8d/L	8b-/L	.	8dd\	sce-
.	.	8f/J	8f/J	.	8cc\	-na
!LO:LB:g=original	!	!	!LO:LB:g=original	!	!	!
=6	=6	=6	=6	=6	=6	=6
*	*	*^	*	*	*	*
8BB-/	.	8b-/	4ryy	4dd/	4f\	8dd\	flu-
8r	.	8re	.	.	.	16b-\	-at
.	.	.	.	.	.	16dd\	a
4r	.	8a/L	8f\L	8re	4ryy	8cc\	me-
.	.	8a/J	8f\J	8cc\	.	8f/	-na
!	!	!LO:SIC:n=2:s=8d	!	!	!	!	!
8BB-/	.	8b-/	8e-\	8dd\L	2ryy	(>16dd\LL	vo-
.	.	.	.	.	.	16b-\JJ)	.
8r	.	8r	8ryy	8dd\	.	(>16b-\LL	-cis
.	.	.	.	.	.	16dd\JJ)	.
4r	.	8a/L	8f\L	8cc\	.	8cc\	ve-
.	.	8a/J	8f\J	8cc\J	.	8f/	-na
*	*	*v	*v	*	*	*	*
*	*	*	*v	*v	*	*
=7	=7	=7	=7	=7	=7
!	!	!LO:TX:t=P:problem=mixed beam	!	!	!
8BB-/	.	8dd\L	8dd\L	(>16ff\LL	fi-
.	.	.	.	16dd\JJ)	.
8r	.	8f/J	8dd\	(>16dd\LL	-at
.	.	.	.	16b-\JJ)	.
!	!	!LO:TX:t=P:problem=mixed beam	!	!	!
8F\	.	8cc\L	8cc\	(>16ee-\LL	sua-
.	.	.	.	16cc\JJ)	.
8r	.	8f/J	8cc\J	(>16cc\LL	-vis
.	.	.	.	16a\JJ)	.
!	!	!LO:TX:t=P:problem=mixed beam	!	!	!
8B-\	.	8b-\L	(<16b-/LL	(>16dd\LL	Pa-
.	.	.	16f/)	16b-\JJ)	.
8r	.	8f/J	(<16f/	(>16b-\LL	-sto-
.	.	.	16d/JJ)	16g\JJ)	.
8F\	.	8a\L	8f/L	(>16cc\LL	-rel-
.	.	.	.	16a\JJ)	.
8r	.	8f/J	8a/J	(>16a\LL	-la
.	.	.	.	16f\JJ)	.
=8	=8	=8	=8	=8	=8
!	!	!LO:TX:t=P:problem=mixed beam	!	!	!
8F\	.	8dd\L	8dd\L	(>16ff\LL	dul-
.	.	.	.	16dd\JJ)	.
8r	.	8f/J	8dd\	(>16dd\LL	-ci
.	.	.	.	16b-\JJ)	.
!	!	!LO:TX:t=P:problem=mixed beam	!	!	!
8B-\	.	8cc\L	8cc\	(>16ee-\LL	vo-
.	.	.	.	16cc\JJ)	.
8r	.	8f/J	8cc\J	(>16cc\LL	-ce
.	.	.	.	16a\JJ)	.
!	!	!	!	!LO:LB:g=original	!
8F\	.	8b-/L	16b-/LL	(>16dd\LL	et
.	.	.	16f/	16b-\JJ)	.
8r	.	8f/J	16f/	(>16b-\LL	te-
.	.	.	16d/JJ	16g\JJ)	.
4BB-/	.	8a/L	8a/L	(>16cc\LL	-nel-
.	.	.	.	16a\JJ)	.
.	.	8f/J	8a/J	(>16a\LL	-la
.	.	.	.	16f\JJ)	.
=9	=9	=9	=9	=9	=9
8r	.	8.b-/L	16dd\LL	1r	.
.	.	.	16b-\	.	.
16D\LL	.	.	16dd\	.	.
16E-\JJ	.	16b-/Jk	16b-\JJ	.	.
!	!	!	!LO:N:vis=4.	!	!
8D\L	.	8.cc\L	4ffT\	.	.
8C\J	.	.	.	.	.
.	.	16cc\Jk	.	.	.
8BB-/	.	8.b-\L	16dd\LL	.	.
.	.	.	16b-\	.	.
8r	.	.	16dd\	.	.
.	.	16b-\Jk	16b-\JJ	.	.
16D\LL	.	8.cc\L	4ffT\	.	.
16E-\	.	.	.	.	.
16D\	.	.	.	.	.
16C\JJ	.	16cc\Jk	.	.	.
=10-	=10-	=10	=10	=10	=10
8BB-/	.	8dd\L	16ff\LL	8ff\	sa-
.	.	.	16dd\	.	.
8r	.	8dd\J	16dd\	8ff\	-lu-
.	.	.	16b-\JJ	.	.
4r	.	8cc\L	16ff\LL	8ff\	-tans
.	.	.	16cc\	.	.
.	.	8cc\J	16cc\	8ff\	In-
.	.	.	16a\JJ	.	.
!	!	!LO:LB:g=original	!LO:LB:g=original	!	!
2r	.	16b-/LL	16dd\LL	8.ff\	-fan-
.	.	16f/	16b-\	.	.
.	.	16f/	16b-\	.	.
.	.	16d/JJ	16g\JJ	16f/	-tu-
.	.	8a/L	16cc\LL	4f/	-lum
.	.	.	16a\	.	.
.	.	8a/J	16a\	.	.
.	.	.	16f\JJ	.	.
=11	=11	=11	=11	=11	=11
8BB-/	.	8dd\L	16ff\LL	8ff\	ne-
.	.	.	16dd\	.	.
8r	.	8dd\J	16dd\	8ff\	-o-
.	.	.	16b-\JJ	.	.
4r	.	8cc\L	16ff\LL	8ff\	-na-
.	.	.	16cc\	.	.
.	.	8cc\J	16cc\	8ff\	-tum
.	.	.	16a\JJ	.	.
2r	.	16b-/LL	16dd\LL	8.ff\	JE-
.	.	16f/	16b-\	.	.
.	.	16f/	16b-\	.	.
.	.	16d/JJ	16g\JJ	16f/	-SU-
.	.	8a/L	16cc\LL	4f/	-LUM
.	.	.	16a\	.	.
.	.	8a/J	16a\	.	.
.	.	.	16f\JJ	.	.
=12	=12	=12	=12	=12	=12
*	*	*^	*^	*	*
!	!	!LO:SIC:n=2:s=8d	!	!	!	!	!
8BB-/	.	8b-/	8e-\	8dd/	8f\	8dd\	in
8r	.	8r	8ryy	8r	8ryy	(>16b-\LL	hac
.	.	.	.	.	.	16dd\JJ)	.
8F\	.	8a/L	8f\L	8cc\L	4ryy	8cc\	an-
8r	.	8a/J	8f\J	8cc\J	.	16f/	-nu-
.	.	.	.	.	.	16f/	-a
!	!	!	!	!	!	!LO:LB:g=original	!
!	!	!LO:SIC:n=2:s=4d	!	!	!	!	!
8B-\	.	4b-/	4e-\	8dd/	8f\	16dd\	no-
.	.	.	.	.	.	16b-\	-vi
8r	.	.	.	8r	8ryy	16b-\	an-
.	.	.	.	.	.	16dd\	-ni
8F\	.	8a/L	8f\L	8cc\L	4ryy	8cc\	sce-
8r	.	8a/J	8f\J	8cc\J	.	8f/	-na
=13	=13	=13	=13	=13	=13	=13	=13
!	!	!LO:SIC:n=2:s=8d	!	!	!	!	!
8BB-/	.	8b-/	8e-\	8dd/	8f\	8dd\	flu-
8r	.	8r	8ryy	8r	8ryy	16b-\	-at
.	.	.	.	.	.	16dd\	a
8F\	.	8a/L	8f\L	8cc\L	4ryy	8cc\	me-
8r	.	8a/J	8f\J	8cc\J	.	8f/	-na
!	!	!LO:SIC:n=2:s=8d	!	!	!	!	!
8B-\	.	8b-/	8e-\	8dd/	8f\	(>16dd\LL	vo-
.	.	.	.	.	.	16b-\JJ)	.
8r	.	8r	8ryy	8r	8ryy	(>16b-\LL	-cis
.	.	.	.	.	.	16dd\JJ)	.
8F\	.	8a/L	8f\L	8cc\L	4ryy	8cc\	ve-
8r	.	8a/J	8f\J	8cc\J	.	8f/	-na
*	*	*v	*v	*	*	*	*
*	*	*	*v	*v	*	*
=14	=14	=14	=14	=14	=14
!	!	!LO:TX:t=P:problem=mixed beam	!	!	!
8BB-/	.	8dd\L	8dd\L	(>16ff\LL	fi-
.	.	.	.	16dd\JJ)	.
8r	.	8f/J	8dd\	(>16dd\LL	-at
.	.	.	.	16b-\JJ)	.
!	!	!LO:TX:t=P:problem=mixed beam	!	!	!
4r	.	8cc\L	8cc\	(>16ee-\LL	sua-
.	.	.	.	16cc\JJ)	.
.	.	8f/J	8cc\J	(>16cc\LL	-vis
.	.	.	.	16a\JJ)	.
!	!	!LO:TX:t=P:problem=mixed beam	!	!	!
!	!	!	!LO:LB:g=original	!	!
8BB-/	.	8b-\L	(<16b-/LL	(>16dd\LL	Pa-
.	.	.	16f/	16b-\JJ)	.
8r	.	8f/J	16f/	(>16b-\LL	-sto-
.	.	.	16d/JJ)	16g\JJ)	.
4r	.	8a/L	8f/L	(>16cc\LL	-rel-
.	.	.	.	16a\JJ)	.
.	.	8f/J	8f/J	(>16a\LL	-la
.	.	.	.	16f\JJ)	.
!LO:LB:g=original	!	!LO:LB:g=original	!	!LO:LB:g=original	!
=15	=15	=15	=15	=15	=15
!	!	!LO:TX:t=P:problem=mixed beam	!	!	!
8BB-/	.	8dd\L	8dd\L	(>16ff\LL	dul-
.	.	.	.	16dd\JJ)	.
8r	.	8f/J	8dd\	(>16dd\LL	-ci
.	.	.	.	16b-\JJ)	.
!	!	!LO:TX:t=P:problem=mixed beam	!	!	!
4r	.	8cc\L	8cc\	(>16ee-\LL	vo-
.	.	.	.	16cc\JJ)	.
.	.	8f/J	8cc\J	(>16cc\LL	-ce
.	.	.	.	16a\JJ)	.
8BB-/	.	8b-/L	16b-/LL	(>16dd\LL	et
.	.	.	16f/	16b-\JJ)	.
8r	.	8f/	16f/	(>16b-\LL	te-
.	.	.	16d/JJ	16g\JJ)	.
!	!	!	!	!LO:SIC:l&colon;s=-nel-	!
4r	.	8a/	8f/L	(>16cc\LL	-tel-
.	.	.	.	16a\JJ)	.
.	.	8f/J	8f/J	(>16a\LL	-la
.	.	.	.	16f\JJ)	.
=16	=16	=16	=16	=16	=16
0r	.	8b-/L	8dd\L	8dd\	sa-
.	.	16f/L	16cc\L	16cc\LL	-lu-
.	.	16e-/JJ	16b-\JJ	16b-\JJ	.
.	.	8f/L	8cc\L	8cc\	-tans
.	.	8a/J	8ff\J	8ff\	In-
.	.	8b-/L	8dd\L	8dd\	-fan-
.	.	16f/L	16cc\L	16cc\LL	.
.	.	16e-/JJ	16b-\JJ	16b-\JJ	-tu-
.	.	4f/	4cc\	4cc\	-lum
=17	=17	=17	=17	=17	=17
.	.	8b-\L	8ee-\L	16ee-\LL	ne-
.	.	.	.	16dd\JJ	.
.	.	8b-\J	16dd\L	8dd\	-o-
.	.	.	16dd\JJ	.	.
.	.	8b-\L	16ee-\LL	16gg\LL	-na-
.	.	.	16dd\	16ff\JJ	.
.	.	8b-\J	16cc\	16ee-\LL	-tum
.	.	.	16b-\JJ	16dd\JJ	.
.	.	8b-\L	8.f/L	8dd\	JE-
.	.	8at\J	.	16cc\LL	-SU-
.	.	.	16f/Jk	16b-\JJ	.
.	.	4b-\	4d/	4b-\	-LUM
!	!	!	!	!LO:LB:g=original	!
=18	=18	=18	=18	=18	=18
8BB-/	.	8b-/L	8dd\L	8ff\	sa-
8r	.	16f/L	16cc\L	8ff\	-lu-
.	.	16d/JJ	16b-\JJ	.	.
8F\	.	8f/L	8cc\L	8ff\	-tans
8r	.	8cc/J	8ff\J	8ff\	In-
8B-\	.	8b-/L	8dd\L	8.ff\	-fan-
8r	.	16f/L	16cc\L	.	.
.	.	16d/JJ	16b-\JJ	16f/	-tu-
8F\	.	4f/	4cc\	4f/	-lum
8r	.	.	.	.	.
=19	=19	=19	=19	=19	=19
8BB-/	.	1r	1r	16ee-\LL	ne-
.	.	.	.	16dd\JJ	.
8r	.	.	.	8dd\	-o-
8E-\	.	.	.	(>16gg\LL	-na-
!	!	!	!LO:TX:a:t=1.	!	!
.	.	.	.	16ff\JJ)	.
8r	.	.	.	(>16ee-\LL	-tum
.	.	.	.	16dd\JJ)	.
8F\L	.	.	.	8dd\	JE-
8FF/J	.	.	.	(>16cc\LL	-SU-
.	.	.	.	16b-\JJ)	.
!LO:TX:t=P:problem=znak repetycji	!	!	!	!	!
!LO:TX:a:t=P:||:problem=w źródle kreska taktowa 	!	!LO:TX:a:t=P:||:problem=w źródle kreska taktowa 	!	!	!
4BB-/	.	.	.	4b-\	-LUM.
!	!	!LO:LB:g=original	!LO:LB:g=original	!LO:LB:g=original	!
=20||	=20||	=20||;;	=20||;;	=20||;;	=20||
*M6/8	*	*M6/8	*M6/8	*M6/8	*
!LO:TX:t=P:problem=mixed beam	!	!	!LO:TX:a:i:t=Largo	!LO:TX:a:t=10	!
!	!	!	!	!LO:N:vis=00	!
8BB-/L	.	8d/	8b-\	0.r	.
8B-\	.	4dd\	4ff\	.	.
8B-\J	.	.	.	.	.
8B-\	.	(>16dd\LL	(>16ff\LL	.	.
.	.	16b-\)	16dd\)	.	.
8r	.	(>16cc\	(>16ee-\	.	.
.	.	16a\JJ)	16cc\JJ)	.	.
8r	.	8b-\	8dd\	.	.
!LO:LB:g=original	!	!	!	!	!
=21	=21	=21	=21	=21	=21
!LO:TX:t=P:problem=mixed beam	!	!	!	!	!
8FF/L	X 2	8f/	8f/	.	.
8F\	.	4cc\	4ee-\	.	.
8F\J	.	.	.	.	.
8F\	.	16cc\LL	(>16ee-\LL	.	.
.	.	16a\	16cc\)	.	.
8r	.	16b-\	(>16dd\	.	.
.	.	16g\JJ	16b-\JJ)	.	.
8r	.	8a/	8cc\	.	.
=22	=22	=22	=22	=22	=22
!LO:TX:t=P:problem=mixed beam	!	!	!	!	!
8BB-/L	.	8d/	8f/	.	.
8B-\	.	4b-/	4dd\	.	.
8B-\J	.	.	.	.	.
8B-\	.	16b-/LL	(>16dd\LL	.	.
.	.	16f/	16cc\)	.	.
8r	.	16f/	(>16cc\	.	.
.	.	16d/JJ	16b-\)	.	.
8r	.	8d/	(>16b-\	.	.
.	.	.	16g\JJ)	.	.
=23	=23	=23	=23	=23	=23
8F\L	X 3	8cc\	(>8ee-\	.	.
8F\	.	4b-\	(>4dd\)	.	.
8F\J	6 4	.	.	.	.
8F\L	.	4a\	4cc\)	.	.
8A\	.	.	.	.	.
8c\J	.	8r	8r	.	.
=24	=24	=24	=24	=24	=24
!	!	!	!	!LO:N:vis=00	!
8r	.	8.a/L	(>16cc\LL	0.r	.
.	.	.	16a\)	.	.
8F\L	.	.	(>16a\	.	.
.	.	16a/K	16f\)	.	.
8F\J	.	8a/J	(>16cc\	.	.
.	.	.	16f\JJ)	.	.
8r	.	8.b-/L	(>16dd\LL	.	.
.	.	.	16b-\)	.	.
!LO:TX:t=P:problem=mixed beam	!	!	!	!	!
8F\L	.	.	(>16b-\	.	.
.	.	16b-/K	16f\)	.	.
8FF/J	.	8b-/J	(>16dd\	.	.
.	.	.	16f\JJ)	.	.
!	!	!	!LO:LB:g=original	!	!
=25	=25	=25	=25	=25	=25
8r	.	8.a/L	(>16cc\LL	.	.
.	.	.	16a\)	.	.
!LO:TX:t=P:problem=mixed beam	!	!	!	!	!
8F\L	.	.	(>16a\	.	.
.	.	16a/K	16f\)	.	.
8FF/J	.	8a/J	(>16cc\	.	.
.	.	.	16f\JJ)	.	.
8r	.	8.b-/L	(>16dd\LL	.	.
.	.	.	16b-\)	.	.
!LO:TX:t=P:problem=mixed beam	!	!	!	!	!
8F\L	.	.	(>16b-\	.	.
.	.	16b-/K	16f\)	.	.
8FF/J	.	8b-/J	(>16dd\	.	.
.	.	.	16f\JJ)	.	.
!	!	!LO:LB:g=original	!	!	!
=26	=26	=26	=26	=26	=26
8r	.	8cc\	8ee-\	.	.
8BB-/L	.	4b-\	4dd\	.	.
8D/J	.	.	.	.	.
16F\LL	.	4a\	4cc\	.	.
16E-\	.	.	.	.	.
16D\	.	.	.	.	.
16E-\	.	.	.	.	.
16D\	.	8r	8r	.	.
16C\JJ	.	.	.	.	.
=27	=27	=27	=27	=27	=27
!LO:TX:t=P:problem=mixed beam	!	!	!	!	!
8BB-/L	.	8d/	8b-\	.	.
8B-\	.	4dd\	4ff\	.	.
8B-\J	.	.	.	.	.
!LO:LB:g=original	!	!	!	!	!
8B-\	.	(>16dd\LL	(>16ff\LL	.	.
.	.	16b-\)	16dd\)	.	.
8r	.	(>16cc\	(>16ee-\	.	.
.	.	16a\JJ)	16cc\JJ)	.	.
8r	.	8b-\	8dd\	.	.
=28	=28	=28	=28	=28	=28
!LO:TX:t=P:problem=mixed beam	!	!	!	!	!
!	!	!	!	!LO:N:vis=0	!
8FF/L	.	8f/	8f/	1.r	.
8F\	X 2_	4cc\	4ee-\	.	.
8F\J	.	.	.	.	.
8F\	.	16cc\LL	16ee-\LL	.	.
.	.	16a\	16cc\	.	.
8r	X X	16b-\	16dd\	.	.
.	.	16g\JJ	16b-\JJ	.	.
8r	.	8a/	8cc\	.	.
=29	=29	=29	=29	=29	=29
!LO:TX:t=P:problem=mixed beam	!	!	!	!	!
8B-\L	.	8b-/L	8dd\	.	.
8F\	X 4	8b-/	4ccT\	.	.
.	X 3	.	.	.	.
8FF/J	.	8f/J	.	.	.
4BB-/	.	4d/	4b-\	.	.
8r	.	8r	8r	.	.
!	!	!	!LO:LB:g=original	!	!
=30	=30	=30	=30	=30	=30
!LO:N:vis=0	!	!	!	!	!
1.r	.	16d/LL	(>16b-\LL	(>16b-\LL	O
.	.	16f/JJ	16cc\	16cc\JJ)	.
.	.	8b-\L	16dd\	(>16dd\LL	Pu-
.	.	.	16b-\JJ)	16b-\JJ)	.
.	.	8cc\J	8ee-\	8ee-\	-er
.	.	4a/	8.cc\L	8.cc\	Par-
.	.	.	16cc\K	16cc\	-vu-
.	.	8a/	8cc\J	8cc\	-le
=31	=31	=31	=31	=31	=31
.	.	16d/LL	(>16b-\LL	16b-\LL	De-
.	.	16f/JJ	16cc\	16cc\JJ	.
.	.	8b-\L	16dd\	(>16dd\LL	-us
.	.	.	16b-\JJ)	16b-\JJ)	.
.	.	8cc\J	8ee-\	8ee-\	In-
.	.	4a/	8.cc\L	8.cc\	-fan-
.	.	.	16cc\K	16cc\	-tu-
!	!	!	!	!LO:N:vis=4	!
.	.	8a/	8cc\J	8cc\	-le
!	!	!LO:LB:g=original	!	!	!
=32	=32	=32	=32	=32	=32
2.r	.	8b-\	8dd\	8dd\	dor-
.	.	4cc\	4ee-\	4ee-\	-mi
.	.	4dd\	4ff\	8ff\	dul-
!	!	!	!	!LO:SIC:s=4ee	!
.	.	.	.	4dd\	-cis
.	.	8b-\	8dd\	.	.
=33	=33	=33	=33	=33	=33
!LO:N:vis=2	!	!	!	!	!
4.r	.	4b-\	8dd\L	(>8dd\L	dul-
.	.	.	8b-\	8b-\J)	.
.	.	8cc\	8ee-\J	8ee-\	-cis
8E-\L	.	4a/	4cc\	4cc\	spes
8D\	.	.	.	.	.
8C\J	.	8r	8r	8r	.
=34	=34	=34	=34	=34	=34
!LO:TX:t=P:problem=mixed beam	!	!	!	!LO:TX:a:t=10	!
!	!	!	!	!LO:N:vis=00	!
8BB-/L	.	8d/	8b-\	0.r	.
8B-\	.	4dd\	4ff\	.	.
8B-\J	.	.	.	.	.
8B-\	.	16dd\LL	(>16ff\LL	.	.
.	.	16b-\	16dd\)	.	.
8r	.	16cc\	(>16ee-\	.	.
.	.	16a\JJ	16cc\JJ)	.	.
8r	.	8b-\	8dd\	.	.
=35	=35	=35	=35	=35	=35
!LO:TX:t=P:problem=mixed beam	!	!	!	!	!
8FF/L	.	8d/	8f/	.	.
8F\	X 2	4cc\	4ee-\	.	.
8F\J	.	.	.	.	.
8F\	.	16cc\LL	16ee-\LL	.	.
.	.	16a\	16cc\	.	.
8r	.	16b-\	16dd\	.	.
.	.	16g\JJ	16b-\JJ	.	.
8r	.	8a/	8cc\	.	.
!	!	!	!LO:LB:g=original	!	!
=36	=36	=36	=36	=36	=36
!LO:TX:t=P:problem=mixed beam	!	!LO:TX:t=P:problem=w źródle brak tego taktu; dodano, aby zgadzały się piony brzmieniowe	!	!	!
8BB-/L	.	2.ryy	8f/	.	.
8B-\	.	.	4dd\	.	.
8B-\J	.	.	.	.	.
8B-\	.	.	(>16dd\LL	.	.
.	.	.	16cc\)	.	.
8r	.	.	(>16cc\	.	.
.	.	.	16b-\)	.	.
8r	.	.	(>16b-\	.	.
.	.	.	16g\JJ)	.	.
!LO:LB:g=original	!	!	!	!	!
=37	=37	=37	=37	=37	=37
8F\L	.	8cc\	8ee-\	.	.
8F\	.	4b-/	4dd\	.	.
8F\J	.	.	.	.	.
8F\L	X 7	4a/	4cc\	.	.
8A\	6 4	.	.	.	.
8c\J	X 3	8r	8r	.	.
=38	=38	=38	=38	=38	=38
!	!	!	!	!LO:N:vis=00	!
8r	.	8.a/L	(>16cc\LL	0.r	.
.	.	.	16a\)	.	.
8F\L	.	.	(>16a\	.	.
.	.	16a/K	16f\)	.	.
8F\J	.	8a/J	(>16cc\	.	.
.	.	.	16f\JJ)	.	.
8r	.	8.b-/L	(>16dd\LL	.	.
.	.	.	16b-\)	.	.
!LO:TX:t=P:problem=mixed beam	!	!	!	!	!
8F\L	6 4	.	(>16b-\	.	.
.	.	16b-/K	16f\)	.	.
8FF/J	.	8b-/J	(>16dd\	.	.
.	.	.	16f\JJ)	.	.
!	!	!LO:LB:g=original	!	!	!
=39	=39	=39	=39	=39	=39
!	!	!LO:TX:t=P:problem=niekompletny takt - uszkodzone źródło	!	!	!
8r	.	4.ryy	(>16cc\LL	.	.
.	.	.	16a\)	.	.
!LO:TX:t=P:problem=mixed beam	!	!	!	!	!
8F\L	.	.	(>16a\	.	.
.	.	.	16f\)	.	.
8FF/J	.	.	(>16cc\	.	.
.	.	.	16f\JJ)	.	.
8r	.	8.b-/L	(>16dd\LL	.	.
.	.	.	16b-\)	.	.
!LO:TX:t=P:problem=mixed beam	!	!	!	!	!
8F\L	.	.	(>16b-\	.	.
.	.	16b-/K	16f\)	.	.
8FF/J	.	8b-/J	(>16dd\	.	.
.	.	.	16f\JJ)	.	.
=40	=40	=40	=40	=40	=40
8r	.	8cc\	8ee-\	.	.
8BB-/L	.	4b-/	4dd\	.	.
8D/J	.	.	.	.	.
16F\LL	.	4a/	4cc\	.	.
16E-\	.	.	.	.	.
16D\	.	.	.	.	.
16E-\	.	.	.	.	.
16D\	.	8r	8r	.	.
16C\JJ	.	.	.	.	.
=41	=41	=41	=41	=41	=41
!LO:TX:t=P:problem=mixed beam	!	!	!	!	!
8BB-/L	.	8d/	8b-\	.	.
8B-\	.	4dd\	4ff\	.	.
8B-\J	.	.	.	.	.
8B-\	.	16dd\LL	(>16ff\LL	.	.
.	.	16b-\	16dd\)	.	.
8r	.	16cc\	(>16ee-\	.	.
.	.	16a\JJ	16cc\JJ)	.	.
8r	.	8b-\	8dd\	.	.
!	!	!	!LO:LB:g=original	!	!
=42	=42	=42	=42	=42	=42
!LO:TX:t=P:problem=mixed beam	!	!	!	!	!
!	!	!	!	!LO:N:vis=0	!
8FF/L	X 2	8d/	8f/	1.r	.
8F\	.	4cc\	4ee-\	.	.
8F\J	.	.	.	.	.
8F\	.	16cc\LL	(>16ee-\LL	.	.
.	.	16a\	16cc\)	.	.
8r	.	16b-\	(>16dd\	.	.
.	.	16g\JJ	16b-\JJ)	.	.
8r	.	8a/	8cc\	.	.
=43	=43	=43	=43	=43	=43
!LO:TX:t=P:problem=mixed beam	!	!	!	!	!
8B-\L	.	8b-/L	8dd\	.	.
8F\	X 4	8b-/	4cc\	.	.
8FF/J	X 3	8f/J	.	.	.
4BB-/	.	4d/	4b-\	.	.
8r	.	8r	8r	.	.
!LO:LB:g=original	!	!	!	!LO:LB:g=original	!
=44	=44	=44	=44	=44	=44
!LO:N:vis=0	!	!	!	!	!
1.r	.	16d/LL	(>16b-\LL	(>16b-\LL	O
.	.	16f/JJ	16cc\)	16cc\JJ)	.
.	.	8b-\L	(>16dd\	16dd\LL	Pu-
!LO:TX:a:t=3	!	!	!	!	!
.	.	.	16b-\JJ)	16b-\JJ	.
.	.	8cc\J	8ee-\	8ee-\	-er
.	.	4a/	8.cc\L	8.cc\	Par-
.	.	.	16cc\K	16cc\	-vu-
.	.	8a/	8cc\J	8cc\	-le
=45	=45	=45	=45	=45	=45
.	.	16d/LL	(>16b-\LL	(>16b-\LL	De-
.	.	16f/JJ	16cc\)	16cc\JJ)	.
.	.	8b-\L	(>16dd\	(>16dd\LL	-us
.	.	.	16b-\JJ)	16b-\JJ)	.
.	.	8cc\J	8ee-\	8ee-\	In-
!	!	!LO:LB:g=original	!	!	!
.	.	4a/	8.cc\L	8.cc\	-fan-
.	.	.	16cc\K	16cc\	-tu-
!	!	!	!	!LO:N:vis=4	!
.	.	8a/	8cc\J	8cc\	-le
=46	=46	=46	=46	=46	=46
2.r	.	8b-\	8dd\	8dd\	dor-
.	.	4cc\	4ee-\	8ee-\L	-mi
.	.	.	.	8ee-\J	.
.	.	4dd\	4ff\	8ff\	dul-
.	.	.	.	4ee-\	-cis
.	.	8b-\	8dd\	.	.
=47	=47	=47	=47	=47	=47
!LO:N:vis=2	!	!	!	!	!
4.r	.	8b-\	8dd\L	(>8dd\L	or-
.	.	4cc\	8b-\	8b-\J)	.
.	.	.	8ee-\J	8ee-\	-bis
8F\L	.	4a/	4cc\	4cc\	spes
8E-\	.	.	.	.	.
8D\J	.	8r	8r	8r	.
=48	=48	=48	=48	=48	=48
!	!	!	!LO:TX:a:t=4	!	!
!	!	!LO:N:vis=00	!LO:N:vis=00	!	!
8BB-/L	.	0.r	0.r	8b-\	dor-
8AA/	.	.	.	4cc\	-mi
8GG/J	.	.	.	.	.
8BB-/L	.	.	.	8b-\	na
8AA/	.	.	.	8.cc\	na
8FF/J	.	.	.	.	.
.	.	.	.	16ff\	na
!	!	!	!	!LO:LB:g=original	!
=49	=49	=49	=49	=49	=49
8B-\L	.	.	.	(>8dd\L	dor-
8A\	.	.	.	8cc\J)	.
8F\J	.	.	.	8b-\	-mi
8B-\L	.	.	.	16dd\LL	na
.	.	.	.	16ee-\JJ	.
8A\	.	.	.	4ff\	-na
8F\J	.	.	.	.	.
=50	=50	=50	=50	=50	=50
8B-\L	.	.	.	(>8dd\L	e-
8A\	.	.	.	8cc\J)	.
8G\J	.	.	.	8b-\	-xo-
8B-\L	.	.	.	8cc\	-pta-
8A\	.	.	.	16dd\LL	.
.	.	.	.	16ee-\JJ	.
16G\L	.	.	.	8ff\	-ta
16F\JJ	.	.	.	.	.
=51	=51	=51	=51	=51	=51
!LO:TX:t=P:problem=mixed beam	!	!	!	!	!
8d\L	.	.	.	16a\LL	mil-
.	.	.	.	16b-\JJ	.
8c\	X 4	.	.	8a\	li
8C/J	X 3	.	.	16g/LL	.
.	.	.	.	16f/JJ	.
8F\L	.	.	.	4f/	es
8D\	.	.	.	.	.
8C\J	.	.	.	8r	.
!	!	!	!LO:LB:g=original	!	!
=52	=52	=52	=52	=52	=52
4BB-/	.	16d/LL	16b-\LL	16b-\LL	O
.	.	16f/JJ	16cc\	16cc\JJ	.
.	.	8b-\L	16dd\	16dd\LL	Pu-
.	.	.	16b-\JJ	16b-\JJ	.
8r	.	8cc\J	8ee-\	8ee-\	-er
!LO:N:vis=2	!	!	!	!	!
4.r	.	4a/	8.cc\L	8.cc\	Par-
.	.	.	16cc\K	16cc\	-vu-
.	.	8a/	8cc\J	8cc\	-le
=53	=53	=53	=53	=53	=53
2.r	.	16d/LL	(>16b-\LL	(>16b-\LL	De-
.	.	16f/JJ	16cc\)	16cc\JJ)	.
.	.	8b-\L	(>16dd\	(>16dd\LL	-us
!LO:TX:a:t=1	!	!	!	!	!
.	.	.	16b-\JJ)	16b-\JJ)	.
.	.	8cc\J	8ee-\	8ee-\	In-
!	!	!	!	!LO:LB:g=original	!
.	.	4a/	8.cc\L	8.cc\	-fan-
.	.	.	16cc\K	16cc\	-tu-
.	.	8a/	8cc\J	8cc\	-le
=54	=54	=54	=54	=54	=54
8r	.	8d/L	8b-\L	8b-\	na-
8r	.	8f/J	8cc\J	8cc\	-na
8F\	.	8r	8r	8r	.
!LO:LB:g=original	!	!	!	!	!
8r	.	8b-/L	8dd\L	8dd\	na-
8r	.	8f/J	8cc\J	8cc\	-na
8F\	.	8r	8r	8r	.
=55	=55	=55	=55	=55	=55
8r	.	8d/L	8b-\L	8b-\	na-
8r	.	8f/J	8cc\J	8cc\	-na
8F\	.	8r	8r	8r	.
!	!	!LO:LB:g=original	!	!	!
8r	.	8b-/L	8dd\L	8dd\	na-
8r	.	8f/J	8cc\J	8cc\	-na
8F\	.	8r	8r	8r	.
!	!	!	!	!LO:LB:g=original	!
=56	=56	=56	=56	=56	=56
!LO:TX:t=P:problem=mixed beam	!	!LO:N:vis=4	!	!	!
!	!	!	!	!LO:N:vis=0	!
8BB-/L	.	8d/	8b-\	1.r	.
8B-\	.	4dd\	4ff\	.	.
8B-\J	.	.	.	.	.
!	!	!	!	!LO:TX:a:t=3	!
8B-\	.	16dd\LL	(>16ff\LL	.	.
.	.	16b-\	16dd\)	.	.
8r	.	16cc\	(>16ee-\	.	.
.	.	16a\JJ	16cc\JJ)	.	.
8r	.	8b-\	8dd\	.	.
=57	=57	=57	=57	=57	=57
!LO:TX:t=P:problem=mixed beam	!	!LO:N:vis=4	!	!	!
8FF/L	.	8f/	8f/	.	.
8F\	.	4cc\	4ee-\	.	.
8F\J	.	.	.	.	.
8F\	.	16cc\LL	16ee-\LL	.	.
.	.	16a\	16cc\	.	.
8r	.	16b-\	16dd\	.	.
.	.	16g\JJ	16b-\JJ	.	.
8r	.	8a/	8cc\	.	.
!	!	!	!LO:LB:g=original	!	!
=58	=58	=58	=58	=58	=58
!LO:TX:t=P:problem=mixed beam	!	!	!	!	!
8B-\L	.	8b-/L	16dd\LL	2.r	.
.	.	.	16ee-\JJ	.	.
8F\	X 4	8b-/	8.dd\L	.	.
8FF/J	X 3	8f/J	.	.	.
.	.	.	16cc\Jk	.	.
4BB-/	.	4d/	4b-\	.	.
8r	.	8r	8r	.	.
=59	=59	=59	=59	=59	=59
!LO:N:vis=0	!	!	!	!	!
1.r	.	16d/LL	(>16b-\LL	(>16b-\LL	O
.	.	16f/JJ	16cc\)	16cc\JJ)	.
.	.	8b-\L	(>16dd\	(>16dd\LL	Pu-
!LO:TX:a:t=3	!	!	!	!	!
.	.	.	16b-\JJ)	16b-\JJ)	.
.	.	8cc\J	8ee-\	8ee-\	-er
.	.	4a/	8.cc\L	8.cc\	blan-
.	.	.	16cc\K	16cc\	-du-
.	.	8a/	8cc\J	8cc\	-le
=60	=60	=60	=60	=60	=60
.	.	16d/LL	(>16b-\LL	(>16b-\LL	dor-
.	.	16f/JJ	16cc\)	16cc\JJ)	.
.	.	8b-\L	(>16dd\	(>16dd\LL	-mi
.	.	.	16b-\JJ)	16b-\JJ)	.
.	.	8cc\J	8ee-\	8ee-\	o
.	.	4a/	8.cc\L	8.cc\	JE-
.	.	.	16cc\K	16cc\	-SU-
.	.	8a/	8cc\J	8cc\	-LE
=61	=61	=61	=61	=61	=61
2.r	.	8b-\	8dd\	8dd\	dor-
.	.	4cc\	4ee-\	4ee-\	-mi
!	!	!LO:LB:g=original	!	!	!
.	.	4dd\	4ff\	8ff\	dul-
.	.	.	.	4ee-\	-cis
.	.	8b-\	8dd\	.	.
=62	=62	=62	=62	=62	=62
!LO:N:vis=2	!	!	!	!	!
4.r	.	8b-\	8dd\L	(>8dd\L	or-
.	.	4cc\	8b-\	8b-\J)	.
.	.	.	8ee-\J	8ee-\	-bis
8F\L	.	4a/	4cc\	4cc\	spes
8D\	.	.	.	.	.
8C\J	.	8r	8r	8r	.
=63	=63	=63	=63	=63	=63
!	!	!LO:N:vis=0	!LO:N:vis=0	!	!
4BB-/	.	1.r	1.r	8dd\	clau-
.	.	.	.	8b-\	-de-
8B-\	.	.	.	8dd\	-o
!	!	!LO:TX:a:t=3	!LO:TX:a:t=3	!	!
!LO:LB:g=original	!	!	!	!	!
8A\L	.	.	.	8cc\	cel-
8F\	.	.	.	4ff\	-los
8A\J	.	.	.	.	.
!	!	!	!	!LO:LB:g=original	!
=64	=64	=64	=64	=64	=64
4B-\	.	.	.	8dd\	Pup-
.	.	.	.	8b-\	-pe
8BB-/	.	.	.	8dd\	te-
8AA/L	.	.	.	8b-\	-nel-
8FF/	.	.	.	4ff\	-los
8AA/J	.	.	.	.	.
=65	=65	=65	=65	=65	=65
8BB-/L	.	2.r	2.r	8dd\	clau-
8AA/	.	.	.	8cc\	-de-
8GG/J	.	.	.	8b-\	-o
4.FF/	.	.	.	8cc\	cel-
.	.	.	.	4f/	-los
=66	=66	=66	=66	=66	=66
!LO:TX:a:t=4	!	!	!	!	!
!LO:N:vis=00	!	!	!	!	!
0.r	.	8.a/L	(>16cc\LL	4.ff\	dor-
.	.	.	16a\)	.	.
.	.	.	(>16a\	.	.
.	.	16a/K	16f\)	.	.
.	.	8a/J	(>16cc\	.	.
.	.	.	16f\JJ)	.	.
!	!	!	!LO:LB:g=original	!	!
.	.	8.b-/L	(>16dd\LL	4.ff\	-mi
.	.	.	16b-\)	.	.
.	.	.	(>16b-\	.	.
.	.	16b-/K	16f\)	.	.
.	.	8b-/J	(>16dd\	.	.
.	.	.	16f\JJ)	.	.
=67	=67	=67	=67	=67	=67
.	.	8.a/L	(>16cc\LL	4.ff\	dor-
.	.	.	16a\)	.	.
.	.	.	(>16a\	.	.
.	.	16a/Jk	16f\)	.	.
.	.	16b-\LL	(>16cc\	.	.
.	.	16cc\JJ	16f\JJ)	.	.
.	.	4b-\	4dd\	4.ff\	-mi
.	.	8a/	8cc\	.	.
=68	=68	=68	=68	=68	=68
.	.	8.a/L	(>16cc\LL	4.ff\	dor-
.	.	.	16a\)	.	.
.	.	.	(>16a\	.	.
.	.	16a/K	16f\)	.	.
.	.	8a/J	(>16cc\	.	.
.	.	.	16f\JJ)	.	.
.	.	8.b-/L	(>16dd\LL	4.ff\	-mi
.	.	.	16b-\)	.	.
.	.	.	(>16b-\	.	.
.	.	16b-/K	16f\)	.	.
.	.	8b-/J	(>16dd\	.	.
.	.	.	16f\JJ)	.	.
=69	=69	=69	=69	=69	=69
.	.	8.a/L	16cc\LL	4.ff\	dor-
.	.	.	16a\	.	.
.	.	.	16a\	.	.
.	.	16a/Jk	16f\	.	.
.	.	16b-\LL	16cc\	.	.
.	.	16cc\JJ	16ee-\JJ	.	.
.	.	8.b-/L	4dd\	4.f/	-mi
.	.	16a/Jk	.	.	.
!	!	!LO:LB:g=original	!	!	!
.	.	16b-/LL	8cc\	.	.
.	.	16g/JJ	.	.	.
=70	=70	=70	=70	=70	=70
8F\L	.	4a/	4ff\	8r	.
8D\	.	.	.	8ff\	dor-
8C\J	.	8r	8r	8ee-\	-mi
!	!	!LO:N:vis=2	!LO:N:vis=2	!	!
8BB-/L	.	4.r	4.r	8dd\L	dul-
8AA/	.	.	.	8cc\J	.
8GG/J	.	.	.	8b-\	-cis
=71	=71	=71	=71	=71	=71
4E-\	.	2.r	2.r	(>8cc\L	or-
.	.	.	.	8e-\J	.
8F\	.	.	.	8a\)	-bis
!	!	!LO:TX:a:t=1	!	!	!
!LO:TX:t=P:problem=mixed beam	!	!	!	!	!
!	!	!	!	!LO:LB:g=original	!
8BB-/L	.	.	.	4b-\	spes
8B-\	.	.	.	.	.
8F\J	.	.	.	8r	.
=72	=72	=72	=72	=72	=72
4BB-/	.	8.dd\L	(>16ff\LL	4.b-\	dor-
.	.	.	16dd\)	.	.
.	.	.	(>16dd\	.	.
.	.	16dd\K	16b-\)	.	.
8r	.	8dd\J	(>16ff\	.	.
.	.	.	16b-\JJ)	.	.
!LO:N:vis=2	!	!	!	!	!
!	!	!	!LO:LB:g=original	!	!
4.r	.	8.ee-\L	(>16gg\LL	4.b-\	.
.	.	.	16ee-\)	.	.
.	.	.	(>16ee-\	.	.
.	.	16ee-\K	16b-\)	.	.
.	.	8ee-\J	(>16gg\	.	.
.	.	.	16b-\JJ)	.	.
=73	=73	=73-	=73	=73	=73
!LO:N:vis=00	!	!	!	!	!
0.r	.	8.dd\L	16ff\LL	4.b-\	.
.	.	.	16dd\	.	.
.	.	.	16dd\	.	.
.	.	16dd\L	16b-\	.	.
.	.	16ee-\	16ff\	.	.
.	.	16ff\JJ	16aa-X\JJ	.	.
.	.	4ee-\	4gg\	4.b-\	.
.	.	8b-\	8ff\	.	.
=74	=74	=74	=74	=74	=74
.	.	8.dd\L	(>16ff\LL	4.b-\	.
.	.	.	16dd\)	.	.
.	.	.	(>16dd\	.	.
.	.	16dd\K	16b-\)	.	.
.	.	8dd\J	(>16ff\	.	.
.	.	.	16b-\JJ)	.	.
.	.	8.ee-\L	(>16gg\LL	4.b-\	.
.	.	.	16ee-\)	.	.
.	.	.	(>16ee-\	.	.
.	.	16ee-\K	16b-\)	.	.
.	.	8ee-\J	(>16gg\	.	.
.	.	.	16b-\JJ)	.	.
=75	=75	=75	=75	=75	=75
.	.	16.dd\LL	16ff\LL	4.b-\	.
.	.	.	16dd\	.	.
!	!	!LO:N:vis=16	!	!	!
.	.	32dd\K	.	.	.
.	.	16ee-\	16dd\	.	.
.	.	16ff\JJ	16b-\	.	.
.	.	4.ee-\	16ff\	.	.
.	.	.	16aa-X\JJ	.	.
.	.	.	4gg\	4.b-\	-mi
.	.	8b-\	8ff\	.	.
=76	=76	=76	=76	=76	=76
.	.	8.b-\L	8.dd\L	8ff\	dor-
.	.	.	.	4ff\	-mi
.	.	16cc\K	16ee-\K	.	.
.	.	8b-\J	8dd\J	.	.
.	.	8.f/L	8.cc\L	4ff\	dul-
.	.	16d/K	16b-\K	.	.
.	.	8f/J	8cc\J	8ff\	-cis
!	!	!LO:LB:g=original	!	!	!
=77	=77	=77	=77	=77	=77
!LO:N:vis=2	!	!	!	!	!
4.r	.	8.b-\L	8.dd\L	4ff\	dul-
.	.	16cc\K	16ee-\K	.	.
.	.	8b-\J	8dd\J	8ff\	-cis
8r	.	4f/	4cc\	4f/	spes
!LO:TX:t=P:problem=mixed beam	!	!	!	!	!
8F\L	.	.	.	.	.
8FF/J	.	8r	8r	8r	.
!	!	!	!LO:LB:g=original	!	!
=78	=78	=78	=78	=78	=78
2.r	.	8.b-\L	8.dd\L	8r	.
.	.	.	.	8ff\	su-
.	.	16cc\K	16ee-\K	.	.
!LO:TX:a:t=1	!	!	!	!	!
.	.	8b-\J	8dd\J	8ff\	-per
.	.	8.f/L	8.cc\L	4ff\	mel-
.	.	16d/K	16b-\K	.	.
.	.	8f/J	8cc\J	8ff\	-la
!LO:LB:g=original	!	!	!	!	!
=79	=79	=79	=79	=79	=79
!LO:N:vis=2	!	!	!	!	!
4.r	.	8.b-\L	8.dd\L	4ff\	tu
.	.	16cc\K	16ee-\K	.	.
!	!	!LO:SIC:s=8b-	!	!	!
.	.	8a\J	8dd\J	8ff\	tu
!	!	!	!	!LO:LB:g=original	!
8F\L	.	4f/	4cc\	4f/	es
8D\	.	.	.	.	.
8C\J	.	8r	8r	8r	.
=80	=80	=80	=80	=80	=80
!LO:TX:t=P:problem=mixed beam	!	!	!	!	!
!	!	!LO:N:vis=0	!LO:N:vis=0	!	!
8BB-/L	.	1.r	1.r	4ff\	ex-
8d\	.	.	.	.	.
8c\J	.	.	.	8ee-\	-pe-
8B-\L	.	.	.	(>8dd\L	-cta-
8A\	.	.	.	8cc\J)	.
8G\J	.	.	.	8b-\	-ta
=81	=81	=81	=81	=81	=81
4E-\	.	.	.	(>8cc\L	mil-
.	.	.	.	8g\J)	.
8F\	.	.	.	8a\	-li
8B-\L	.	.	.	4b-\	es
8F\	.	.	.	.	.
8D\J	.	.	.	8r	.
=82	=82	=82	=82	=82	=82
8BB-/	.	16d/LL	(>16b-\LL	(>16b-\LL	O
.	.	16f/JJ	16cc\	16cc\JJ)	.
8r	.	8b-\L	16dd\	(>16dd\LL	Pu-
.	.	.	16b-\JJ)	16b-\JJ)	.
8r	.	8cc\J	8ee-\	8ee-\	-er
!LO:N:vis=2	!	!	!	!	!
4.r	.	4a/	8.cc\L	8.cc\	blan-
.	.	.	16cc\K	16cc\	-du-
.	.	8a/	8cc\J	8cc\	-le
=83	=83	=83	=83	=83	=83
!LO:TX:a:t=3	!	!	!	!	!
!LO:N:vis=0	!	!	!	!	!
1.r	.	16d/LL	16b-\LL	(>16b-\LL	Di-
.	.	16f/JJ	16cc\	16cc\JJ)	.
.	.	8b-\L	16dd\	(>16dd\LL	-ve
.	.	.	16b-\JJ	16b-\JJ)	.
.	.	8cc\J	8ee-\	8ee-\	In-
.	.	4a/	8.cc\L	8.cc\	-fan-
.	.	.	16cc\K	16cc\	-tu-
.	.	8a/	8cc\J	8cc\	-le
=84	=84	=84	=84	=84	=84
.	.	8d/	8b-\	8b-\	dul-
.	.	4dd\	4ff\	4ff\	-cis
.	.	16dd\LL	(>16ff\LL	16ff\LL	or-
!	!	!	!	!LO:TX:b:t=verte	!
.	.	16b-\	16dd\)	16dd\JJ	.
!	!	!	!	!LO:PB:g=original	!
.	.	16cc\	(>16ee-\	16ee-\LL	-bis
.	.	16a\JJ	16cc\JJ)	16cc\JJ	.
!	!	!LO:TX:t=P:problem=niekompletny takt - uszkodzone źródło	!	!	!
.	.	8ryy	8dd\	8dd\	spes
!	!	!LO:LB:g=original	!	!	!
=85	=85	=85	=85	=85	=85
!	!	!LO:SIC:s=8f	!LO:SIC:s=8f	!	!
2.r	.	8d/	8e-/	8f/	Tu
.	.	4cc\	4ee-\	8ee-\	nos-
.	.	.	.	8ee-\	-ter
.	.	16cc\LL	(>16ee-\LL	(>16ee-\LL	DE-
.	.	16a\	16cc\)	16cc\JJ)	.
.	.	16b-\	(>16dd\	16dd\LL	-US
.	.	16g\JJ	16b-\JJ)	16b-\JJ	.
.	.	8a/	8cc\	8cc\	es
!	!	!	!LO:LB:g=original	!	!
=86	=86	=86	=86	=86	=86
!LO:N:vis=2	!	!	!	!	!
4.r	.	8b-/	8dd\	(>16dd\LL	De-
.	.	.	.	16b-\JJ)	.
.	.	4f/	4cc\	4a\	-us
8B-\L	.	4d/	4b-\	4b-\	es
8F\	.	.	.	.	.
8D\J	.	8r	8r	8r	.
=87	=87	=87	=87	=87	=87
4BB-/	.	8.dd\L	(>16ff\LL	4.b-\	dor-
.	.	.	16dd\)	.	.
.	.	.	(>16dd\	.	.
.	.	16dd\K	16b-\)	.	.
8r	.	8dd\J	(>16ff\	.	.
.	.	.	16b-\JJ)	.	.
!LO:N:vis=2	!	!	!	!	!
4.r	.	8.ee-\L	(>16gg\LL	4.b-\	.
.	.	.	16ee-\)	.	.
.	.	.	(>16ee-\	.	.
.	.	16ee-\K	16b-\)	.	.
.	.	8ee-\J	(>16gg\	.	.
.	.	.	16b-\JJ)	.	.
=88	=88	=88	=88	=88	=88
!LO:N:vis=0	!	!	!	!	!
0.r	.	8.dd\L	16ff\LL	4.b-\	.
.	.	.	16dd\	.	.
.	.	.	16dd\	.	.
.	.	16dd\L	16b-\	.	.
.	.	16ee-\	16ff\	.	.
.	.	16ff\JJ	16aa-X\JJ	.	.
.	.	4ee-\	4gg\	4.b-\	.
.	.	8b-\	8ff\	.	.
=89	=89	=89	=89	=89	=89
.	.	8.dd\L	16ff\LL	4.b-\	.
.	.	.	(>16dd\)	.	.
.	.	.	16dd\)	.	.
.	.	16dd\K	16b-\	.	.
.	.	8dd\J	(>16ff\	.	.
.	.	.	16b-\JJ)	.	.
.	.	8.ee-\L	(>16gg\LL	4.b-\	.
.	.	.	16ee-\)	.	.
.	.	.	(>16ee-\	.	.
.	.	16ee-\K	16b-\)	.	.
.	.	8ee-\J	(>16gg\	.	.
.	.	.	16b-\JJ)	.	.
=90	=90	=90	=90	=90	=90
.	.	8.dd\L	16ff\LL	4.b-\	.
.	.	.	(>16dd\	.	.
.	.	.	16dd\)	.	.
.	.	16dd\L	16b-\	.	.
.	.	16ee-\	16ff\	.	.
.	.	16ff\JJ	16aa-X\JJ	.	.
.	.	4ee-\	4gg\	4.b-\	-mi
!	!	!LO:TX:a:t=P:problem=niekompletny takt - uszkodzone źródło	!	!	!
.	.	8ryy	8ff\	.	.
!	!	!LO:PB:g=original	!	!	!
=91	=91	=91	=91	=91	=91
.	.	8b-\L	8.dd\L	4ff\	dor-
.	.	8cc\	.	.	.
.	.	.	16ee-\K	.	.
.	.	8b-\J	8dd\J	8ff\	-mi
!	!	!	!LO:LB:g=original	!LO:LB:g=original	!
.	.	8f/L	8.cc\L	4ff\	dul-
.	.	8d/	.	.	.
.	.	.	16b-\K	.	.
.	.	8f/J	8cc\J	8ff\	-cis
=92	=92	=92	=92	=92	=92
!LO:N:vis=2	!	!	!	!	!
4.r	.	8b-\L	8.dd\L	4ff\	or-
.	.	8cc\	.	.	.
.	.	.	16ee-\K	.	.
.	.	8b-\J	8dd\J	8ff\	-bis
8r	.	4f/	4cc\	4f/	spes
!LO:TX:t=P:problem=mixed beam	!	!	!	!	!
8F\L	.	.	.	.	.
8FF/J	.	8r	8r	8r	.
!LO:LB:g=original	!	!	!	!	!
=93	=93	=93	=93	=93	=93
2.r	.	8b-\L	8.dd\L	4ff\	su-
.	.	8cc\	.	.	.
.	.	.	16ee-\K	.	.
!LO:TX:a:t=1	!	!	!	!	!
.	.	8b-\J	8dd\J	8ff\	-per
.	.	8f/L	8.cc\L	4ff\	mel-
.	.	8d/	.	.	.
.	.	.	16b-\K	.	.
.	.	8f/J	8cc\J	8ff\	-la
=94	=94	=94	=94	=94	=94
!LO:N:vis=2	!	!	!	!	!
4.r	.	8b-\L	8.dd\L	4ff\	tu
.	.	8cc\	.	.	.
.	.	.	16ee-\K	.	.
.	.	8b-\J	8dd\J	8ff\	tu
8F\L	.	4f/	4cc\	4f/	es
8D\	.	.	.	.	.
8C\J	.	8r	8r	8r	.
=95	=95	=95	=95	=95	=95
!LO:TX:t=P:problem=mixed beam	!	!	!LO:TX:a:t=2	!	!
!	!	!LO:N:vis=0	!LO:N:vis=0	!	!
8BB-/L	.	1.r	1.r	4ff\	e-
8d\	.	.	.	.	.
8c\J	.	.	.	8ee-\	-xo-
!	!	!LO:TX:a:t=2	!	!	!
8B-\L	.	.	.	(>8dd\L	-pta-
8A\	.	.	.	8cc\J)	.
8G\J	.	.	.	8b-\	-ta
=96	=96	=96	=96	=96	=96
4E-\	.	.	.	(>8cc\L	mil-
.	.	.	.	8g\J	.
8F\	.	.	.	8a\)	li
8B-\L	.	.	.	4b-\	es
8F\	.	.	.	.	.
8D\J	.	.	.	8r	.
=97	=97	=97	=97	=97	=97
8BB-/	.	16d/LL	16b-\LL	(>16b-\LL	Dor-
.	.	16f/JJ	16cc\	16cc\JJ)	.
8r	.	8b-\L	16dd\	(>16dd\LL	-mi
.	.	.	16b-\JJ	16b-\JJ)	.
8r	.	8cc\J	8ee-\	8ee-\	o
!LO:N:vis=2	!	!	!	!	!
4.r	.	4a/	8.cc\L	8.cc\	Pu-
.	.	.	16cc\K	16cc\	-pu-
.	.	8a/	8cc\J	8cc\	-le
=98	=98	=98	=98	=98	=98
!LO:N:vis=0	!	!	!	!	!
1.r	.	16d/LL	(>16b-\LL	(>16b-\LL	dor-
.	.	16f/JJ	16cc\)	16cc\JJ)	.
.	.	8b-\L	(>16dd\	(>16dd\LL	-mi
.	.	.	16b-\JJ)	16b-\JJ)	.
.	.	8cc\J	8cc\	8ee-\	o
.	.	4a/	8.cc\L	8.cc\	JE-
.	.	.	16cc\K	16cc\	-SU-
.	.	8a/	8cc\J	8cc\	-LE
!	!	!	!LO:TX:a:t=vi-	!	!
=99	=99	=99	=99	=99	=99
!	!	!	!LO:TX:a:t=no	!	!
.	.	8d/	8b-\	8b-\	or-
.	.	4dd\	4ff\	4ff\	-bis
!	!	!LO:LB:g=original	!	!	!
.	.	(>16dd\LL	16ff\LL	(>16ff\LL	dul-
.	.	16b-\)	(>16dd\	16dd\JJ)	.
.	.	(>16cc\	16ee-\	(>16ee-\LL	-cis
.	.	16a\JJ)	16cc\JJ	16cc\JJ)	.
.	.	8b-\	8dd\)	8dd\	spes
!	!	!	!LO:LB:g=original	!	!
=100	=100	=100	=100	=100	=100
2.r	.	8f/	8f/	8f/	tu
.	.	4cc\	4ee-\	8ee-\	nos-
.	.	.	.	8ee-\	-ter
.	.	(>16cc\LL	16ee-\LL	(>16ee-\LL	DE-
.	.	16a\)	16cc\	16cc\JJ)	.
.	.	(>16b-\	16dd\	(>16dd\LL	-US
.	.	16g\JJ)	16b-\JJ	16b-\JJ)	.
.	.	8a/	8cc\	8cc\	es
!	!	!	!	!LO:LB:g=original	!
=101	=101	=101	=101	=101	=101
!LO:N:vis=2	!	!	!	!	!
4.r	.	8b-/	8f/	(>16dd\LL	De-
.	.	.	.	16b-\JJ)	.
.	.	4f/	4dd\	4a\	-us
8B-\L	.	4d/	(>16dd\LL	4b-\	es
.	.	.	16cc\)	.	.
8F\	.	.	(>16cc\	.	.
.	.	.	16b-\)	.	.
8D\J	.	8r	(>16b-\	8r	.
.	.	.	16g\JJ)	.	.
=102	=102	=102	=102	=102	=102
4BB-/	.	8d/	8ee-\	8b-\	or-
.	.	4dd\	4dd\	4ff\	-bis
8r	.	.	.	.	.
!LO:N:vis=2	!	!	!LO:N:vis=8	!	!
4.r	.	16dd\LL	4cc\	(>16ff\LL	dul-
.	.	16b-\	.	16dd\JJ)	.
.	.	16cc\	.	(>16ee-\LL	-cis
.	.	16a\JJ	.	16cc\JJ)	.
.	.	8b-\	8r	8dd\	spes
=103	=103	=103	=103	=103	=103
2.r	.	8f/	(>16cc\LL	8f/	Tu
.	.	.	16a\	.	.
.	.	4cc\	16a\)	8ee-\	nos-
.	.	.	(>16f\	.	.
.	.	.	16cc\	8ee-\	-ter
.	.	.	16f\JJ)	.	.
.	.	(>16cc\LL	(>16dd\LL	(>16ee-\LL	DE-
.	.	16a\)	16b-\	16cc\JJ)	.
.	.	(>16b-\	16b-\)	(>16dd\LL	-US
.	.	16g\JJ)	(>16f\	16b-\JJ)	.
.	.	8a/	16dd\	8cc\	es
.	.	.	16f\JJ)	.	.
!LO:LB:g=original	!	!LO:LB:g=original	!	!	!
=104	=104	=104	=104	=104	=104
!LO:N:vis=2	!	!	!LO:TX:a:t=de	!	!
4.r	.	8b-/	8b-\	(>16cc\LL	De-
.	.	.	.	16b-\JJ)	.
.	.	4f/	4ff\	4a\	-us
8B-\L	.	4d/	16ff\LL	4b-\	es
.	.	.	16dd\	.	.
8F\	.	.	16ee-\	.	.
.	.	.	16cc\JJ	.	.
8D\J	.	8r	8dd\	8r	.
=105	=105	=105	=105	=105	=105
!LO:TX:t=P:problem=mixed beam	!	!	!	!	!
!	!	!	!	!LO:N:vis=00	!
8BB-/L	.	8d/	8f/	0.r	.
8B-\	.	4dd\	4ee-\	.	.
8B-\J	.	.	.	.	.
8B-\	.	(>16dd\LL	(>16ee-\LL	.	.
.	.	16b-\)	16cc\	.	.
8r	.	(>16cc\	16dd\	.	.
.	.	16a\JJ)	16b-\JJ)	.	.
8r	.	8b-\	8cc\	.	.
=106	=106	=106	=106	=106	=106
!LO:TX:t=P:problem=mixed beam	!	!	!	!	!
8FF/L	.	8d/	8dd\	.	.
8F\	X 2	4cc\	4cc\	.	.
8F\J	.	.	.	.	.
8F\	.	16cc\LL	4b-\	.	.
.	.	16a\	.	.	.
8r	.	16b-\	.	.	.
.	.	16g\JJ	.	.	.
!	!	!	!LO:TX:b:t=verte cito	!	!
8r	.	8a/	8r	.	.
=107	=107	=107	=107	=107	=107
!	!	!	!LO:TX:t=P:problem=fragment oznaczony znakiem repetycji przy taktach 104-106	!	!
!	!	!	!LO:TX:a:t=de	!	!
8BB-\L	.	8f/	8b-\yy	.	.
8B-\	.	4b-\	4ff\yy	.	.
8B-\J	.	.	.	.	.
8B-\	.	16b-/LL	16ff\LLyy	.	.
.	.	16f/	16dd\yy	.	.
8r	.	16f/	16ee-\yy	.	.
.	.	16d/JJ	16cc\JJyy	.	.
8r	.	8d/	8dd\yy	.	.
=108	=108	=108	=108	=108	=108
!LO:TX:t=P:problem=mixed beam	!	!	!	!	!
8FF/L	X 2_	8cc\	8f/yy	.	.
8F\	.	4b-\	4ee-\yy	.	.
8F\J	6 4	.	.	.	.
8F\L	.	4a\	(>16ee-\LLyy	.	.
.	.	.	16cc\yy	.	.
8A\	.	.	16dd\yy	.	.
.	.	.	16b-\JJ)yy	.	.
8c\J	.	8r	8cc\yy	.	.
=109	=109	=109	=109	=109	=109
!	!	!	!	!LO:N:vis=00	!
8r	.	8.a/L	8dd\yy	0.r	.
8F\L	.	.	4cc\yy	.	.
.	.	16a/K	.	.	.
8F\J	.	8a/J	.	.	.
8r	.	8b-\L	4b-\yy	.	.
!LO:TX:t=P:problem=mixed beam	!	!	!	!	!
8F\L	6 4	8b-\	.	.	.
!	!	!	!LO:TX:b:i:t=verte cito	!	!
8FF/J	.	8b-\J	8ryy	.	.
!	!	!	!LO:TX:a:t=re	!	!
!	!	!LO:LB:g=original	!LO:PB:g=original	!	!
=110	=110	=110	=110	=110	=110
8r	.	8.a\L	(>16cc\LL	.	.
.	.	.	16a\)	.	.
8F\L	.	.	(>16a\	.	.
.	.	16a\K	16f\)	.	.
8F\J	.	8a\J	(>16cc\	.	.
.	.	.	16f\JJ)	.	.
8r	.	8.b-\L	(>16dd\LL	.	.
.	.	.	16b-\)	.	.
!LO:TX:t=P:problem=mixed beam	!	!	!	!	!
8FF/L	.	.	(>16b-\	.	.
.	.	16b-\K	16f\)	.	.
8F\J	6 4	8b-\J	(>16dd\	.	.
.	.	.	16f\JJ)	.	.
!LO:LB:g=original	!	!	!	!	!
=111	=111	=111	=111	=111	=111
8r	.	8cc\	8ee-\	.	.
8BB-/L	.	4b-\	4ddt\	.	.
8D/J	.	.	.	.	.
16F\LL	.	4a/	4cc\	.	.
16E-\	.	.	.	.	.
16D\	.	.	.	.	.
16E-\	.	.	.	.	.
16D\	.	8r	8r	.	.
16C\JJ	.	.	.	.	.
=112	=112	=112	=112	=112	=112
!LO:TX:t=P:problem=mixed beam	!	!	!	!	!
8BB-/L	.	8d/	8b-\	.	.
8B-\	.	4dd\	4ff\	.	.
8B-\J	.	.	.	.	.
8B-\	.	(>16dd\LL	(>16ff\LL	.	.
.	.	16b-\)	16dd\)	.	.
8r	.	(>16cc\	(>16ee-\	.	.
.	.	16a\JJ)	16cc\JJ)	.	.
8r	.	8b-\	8dd\	.	.
=113	=113	=113	=113	=113	=113
!LO:TX:t=P:problem=mixed beam	!	!	!	!	!
!	!	!	!	!LO:N:vis=0	!
8FF/L	.	8f/	8f/	1.r	.
.	X 2	.	.	.	.
8F\	.	4cc\	4ee-\	.	.
8F\J	.	.	.	.	.
8F\	6 4	16cc\LL	(>16ee-\LL	.	.
.	.	16a\	16cc\)	.	.
8r	.	16b-\	(>16dd\	.	.
.	.	16g\JJ	16b-\JJ)	.	.
8r	.	8a/	8cc\	.	.
=114	=114	=114	=114	=114	=114
8B-\L	.	8b-/	16dd\LL	.	.
.	.	.	16ee-\JJ	.	.
8F\	.	4f/	4cc\	.	.
8D\J	.	.	.	.	.
4BB-;;/	.	4d;;/	4b-\	.	.
!	!	!	!LO:TX:a:i:t=Finis	!	!
8r	.	8r	8r	.	.
!	!	!	!	!LO:TX:a:i:t=Finis	!
!	!	!	!	!LO:LB:g=original	!
=115||	=115||	=115	=115||;;	=115||;;	=115||
!LO:N:vis=4	!	!	!	!	!
8GG/	.	2.r	2.r	8dd\L	Dul-
8r	.	.	.	16cc\L	.
.	.	.	.	16b-\JJ	.
16G\LL	.	.	.	8cc\	-cis
16A\JJ	X 6	.	.	.	.
8B-\L	.	.	.	8.dd\	u-
8A\	.	.	.	.	.
.	.	.	.	16cc\	-be-
8G\J	.	.	.	8b-\	-ris
=116	=116	=116	=116	=116	=116
4.D\	.	8.f#X/L	(<16a/LL	8a\	lac
.	.	.	16f#X/)	.	.
.	.	.	(<16f#/	8r	.
.	.	16f#/K	16d/)	.	.
.	.	8f#/J	(<16a/	8r	.
.	.	.	16d/JJ)	.	.
!	!	!LO:N:vis=8	!	!LO:N:vis=2	!
8F#X\L	.	8.g/L	(<16b-/LL	4.r	.
.	.	.	16g/)	.	.
8G\	.	.	(<16g/	.	.
.	.	16g/K	16d/)	.	.
8D\J	.	8g/J	(<16b-/	.	.
.	.	.	16d/JJ)	.	.
!LO:LB:g=original	!	!LO:LB:g=original	!LO:LB:g=original	!	!
=117	=117	=117	=117	=117	=117
!LO:SIC:s=8D	!	!	!	!	!
8GG/	.	8f#X/	4a/	8dd\	Ma-
8r	.	8r	.	8cc\	-ter
16G\LL	.	8r	8r	16b-\LL	ef-
16A\JJ	.	.	.	16cc\JJ	.
!	!	!LO:N:vis=2	!LO:N:vis=2	!	!
8B-\L	.	4.r	4.r	8.dd\	-flu-
8A\	.	.	.	.	.
.	.	.	.	16cc\	-e-
8G\J	.	.	.	8b-\	-re
=118	=118	=118	=118	=118	=118
!	!	!LO:SIC:s=8.f#	!	!	!
8D\	.	8.f/L	(<16a/LL	8a\	fac
.	.	.	16f#X/)	.	.
!LO:N:vis=8	!	!	!	!	!
4F#X\	.	.	(<16f#/	8r	.
!	!	!LO:SIC:s=16f#	!	!	!
.	.	16f/K	16d/)	.	.
.	.	8f/J	(<16a/	8r	.
.	.	.	16d/JJ)	.	.
!LO:TX:t=P:problem=mixed beam	!	!LO:SIC:s=8f#	!	!LO:N:vis=2	!
8G\L	.	8g/L	(<16b-/LL	4.r	.
.	.	.	16g/)	.	.
8GG/	.	8g/	(<16g/	.	.
.	.	.	16d/)	.	.
8GG/J	.	8g/J	(<16b-/	.	.
.	.	.	16d/JJ)	.	.
=119	=119	=119	=119	=119	=119
!	!	!	!	!LO:N:vis=2	!
4D\	.	4f#X/	4a/	4.r	.
8r	.	8r	8r	.	.
!LO:N:vis=2	!	!	!	!	!
4.r	.	4g/	8bb-\L	8dd\	Pup-
.	.	.	8ccc\	8ee-\	-pe
.	.	8r	8bb-\J	8dd\	te
=120	=120	=120	=120	=120	=120
2.r	.	8r	8bb-\L	(>8dd\L	nel-
.	.	8d/L	8aa\	8cc\J	.
.	.	8d/J	8aa\J	8cc\)	-la
!	!	!	!	!LO:LB:g=original	!
.	.	8d/	8aa\L	8cc\	pan-
.	.	8r	8bb-\	8ee-\	-de-
.	.	8r	8aa\J	8cc\	-la
=121	=121	=121	=121	=121	=121
!LO:N:vis=2	!	!	!	!	!
4.r	.	8r	8aa\L	(>8cc\L	bel-
.	.	8g/L	8gg\	8b-\J)	.
.	.	8G/J	8gg\J	8b-\	-la
!	!	!LO:N:vis=2	!LO:N:vis=2	!	!
8G\L	.	4.r	4.r	8b-\	dul-
8F\	.	.	.	(>8a\L	-cis
8E-\J	.	.	.	8g\J)	.
=122	=122	=122	=122	=122	=122
!	!	!LO:N:vis=0	!LO:N:vis=0	!	!
4D\	.	1.r	1.r	8.f#X/	u-
.	.	.	.	16en/	-be-
8DD/	.	.	.	8f#/	-ris
4GG/	.	.	.	16g\LL	lac
.	.	.	.	16a\	.
.	.	.	.	16b-\	.
.	.	.	.	16cc\	.
8r	.	.	.	16dd\	.
.	.	.	.	32een\L	.
!	!	!	!	!LO:TX:t=P:problem=# above	!
.	.	.	.	32ff#X\JJJ	.
=123	=123	=123	=123	=123	=123
16GG/LL	.	.	.	4gg\	.
16AA/	.	.	.	.	.
16BB-/	.	.	.	.	.
16C/	.	.	.	.	.
16D/	.	.	.	8r	.
32En/L	.	.	.	.	.
32F#X/JJJ	.	.	.	.	.
8G\L	.	.	.	8b-\	Ma-
8F#\	.	.	.	8a\	-ter
8E-X\J	.	.	.	8g\	ef-
=124	=124	=124	=124	=124	=124
4D\	.	2.r	2.r	8.f#X/	-flu-
.	.	.	.	16en/	-e-
8DD/	.	.	.	8f#/	-re
4GG/	.	.	.	4g\	fac
8r	.	.	.	8r	.
!	!	!LO:TX:a:t=P:problem=w źródle ta adnotacja zapisana za ostatnim taktem, na pięciolinii, a "6/8" zapisane w postaci ułamka zwykłego	!	!	!
!	!	!LO:TX:b:i:t=Dacapo 6/8	!LO:TX:b:i:t=DaCapo Li placet.	!LO:TX:b:i:t=DaCapo	!
==;;	==;;	==	==	==;;	==
*-	*-	*-	*-	*-	*-
!!!system-decoration: s1[g1]s4
!!!RDF**kern: > = above
!!!RDF**kern: < = below
!!!EED: Antoni Szymański
!!!EST: 2021-01-08
!!!AIN: 1 empty 2 violn 1 vox
!!!ENC: Katarzyna Serwa
!!!END: 2020-11-25
